docs/assets/img/tool-img-1.svg

<?xml version="1.0" encoding="UTF-8"?>
<svg width="50px" height="50px" viewBox="0 0 50 50" version="1.1" xmlns="http://www.w3.org/2000/svg" xmlns:xlink="http://www.w3.org/1999/xlink">
    <title>keys</title>
    <g id="Welcome" stroke="none" stroke-width="1" fill="none" fill-rule="evenodd">
        <g id="lpw-featured-development-landing-page-2.1" transform="translate(-330.000000, -5241.000000)" fill="#202330" fill-rule="nonzero">
            <g id="Exclusive-Property-T-+-Make-your-property-d-+-Rectangle-+-Home-Loan-Comparison-+-Compare-and-find-the-+-Rectangle-+-ROI-Calculator-+-Calculate-your-ROI-a-+-Rectangle-+-Property-Buying-Guid-+-Learn-about-the-A-Z-+-ab-testing-+-house-+-business-and-finance-+-Rectangle-+-Home-Loan-Calculator-+-Calculate-your-estim-+-Rectangle-+-Investment-Page-+-Discover-the-best-in-+-invest-+-keys-Mask" transform="translate(270.000000, 5089.000000)">
                <g id="keys" transform="translate(60.000000, 152.000000)">
                    <path d="M48.9583333,23.9583333 C49.5416667,23.9583333 50,24.4166667 50,25 C50,25.5833333 49.5416667,26.0416667 48.9583333,26.0416667 L47.9166667,26.0416667 L47.9166667,23.9583333 L48.9583333,23.9583333 Z" id="Path"></path>
                    <polygon id="Path" points="26.0416667 23.9583333 47.9166667 23.9583333 47.9166667 26.0416667 26.0416667 26.0416667"></polygon>
                    <path d="M44.7916667,50 L25,50 C25.5833333,50 26.0416667,49.5416667 26.0416667,48.9583333 L26.0416667,47.9166667 L44.7916667,47.9166667 C46.5208333,47.9166667 47.9166667,46.5208333 47.9166667,44.7916667 L47.9166667,26.0416667 L48.9583333,26.0416667 C49.5416667,26.0416667 50,25.5833333 50,25 L50,44.7916667 C50,47.6666667 47.6666667,50 44.7916667,50 Z" id="Path"></path>
                    <path d="M50,5.20833333 L50,25 C50,24.4166667 49.5416667,23.9583333 48.9583333,23.9583333 L47.9166667,23.9583333 L47.9166667,5.20833333 C47.9166667,3.47916667 46.5208333,2.08333333 44.7916667,2.08333333 L26.0416667,2.08333333 L26.0416667,1.04166667 C26.0416667,0.458333333 25.5833333,0 25,0 L44.7916667,0 C47.6666667,0 50,2.33333333 50,5.20833333 Z" id="Path"></path>
                    <path d="M41.6666667,12.5 C42.25,12.5 42.7083333,12.9583333 42.7083333,13.5416667 C42.7083333,14.125 42.25,14.5833333 41.6666667,14.5833333 L33.3333333,14.5833333 C32.75,14.5833333 32.2916667,14.125 32.2916667,13.5416667 C32.2916667,12.9583333 32.75,12.5 33.3333333,12.5 L41.6666667,12.5 Z" id="Path"></path>
                    <path d="M41.6666667,33.3333333 C42.25,33.3333333 42.7083333,33.7916667 42.7083333,34.375 C42.7083333,34.9583333 42.25,35.4166667 41.6666667,35.4166667 L33.3333333,35.4166667 C32.75,35.4166667 32.2916667,34.9583333 32.2916667,34.375 C32.2916667,33.7916667 32.75,33.3333333 33.3333333,33.3333333 L41.6666667,33.3333333 Z" id="Path"></path>
                    <path d="M41.6666667,39.5833333 C42.25,39.5833333 42.7083333,40.0416667 42.7083333,40.625 C42.7083333,41.2083333 42.25,41.6666667 41.6666667,41.6666667 L33.3333333,41.6666667 C32.75,41.6666667 32.2916667,41.2083333 32.2916667,40.625 C32.2916667,40.0416667 32.75,39.5833333 33.3333333,39.5833333 L41.6666667,39.5833333 Z" id="Path"></path>
                    <path d="M26.0416667,47.9166667 L26.0416667,48.9583333 C26.0416667,49.5416667 25.5833333,50 25,50 C24.4166667,50 23.9583333,49.5416667 23.9583333,48.9583333 L23.9583333,47.9166667 L26.0416667,47.9166667 Z" id="Path"></path>
                    <polygon id="Path" points="23.9583333 26.0416667 26.0416667 26.0416667 26.0416667 47.9166667 23.9583333 47.9166667"></polygon>
                    <polygon id="Path" points="23.9583333 23.9583333 26.0416667 23.9583333 26.0416667 26.0416667 23.9583333 26.0416667"></polygon>
                    <polygon id="Path" points="23.9583333 2.08333333 26.0416667 2.08333333 26.0416667 23.9583333 23.9583333 23.9583333"></polygon>
                    <path d="M26.0416667,1.04166667 L26.0416667,2.08333333 L23.9583333,2.08333333 L23.9583333,1.04166667 C23.9583333,0.458333333 24.4166667,0 25,0 C25.5833333,0 26.0416667,0.458333333 26.0416667,1.04166667 Z" id="Path"></path>
                    <polygon id="Path" points="2.08333333 23.9583333 23.9583333 23.9583333 23.9583333 26.0416667 2.08333333 26.0416667"></polygon>
                    <path d="M16.6666667,12.5 C17.25,12.5 17.7083333,12.9583333 17.7083333,13.5416667 C17.7083333,14.125 17.25,14.5833333 16.6666667,14.5833333 L13.5416667,14.5833333 L13.5416667,12.5 L16.6666667,12.5 Z" id="Path"></path>
                    <path d="M16.3541667,39.8958333 C16.7708333,40.2916667 16.7708333,40.9583333 16.3541667,41.3541667 C16.1666667,41.5625 15.8958333,41.6666667 15.625,41.6666667 C15.3541667,41.6666667 15.0833333,41.5625 14.8958333,41.3541667 L12.5,38.9583333 L13.9583333,37.5 L16.3541667,39.8958333 Z" id="Path"></path>
                    <path d="M14.8958333,33.6458333 C15.2916667,33.2291667 15.9583333,33.2291667 16.3541667,33.6458333 C16.7708333,34.0416667 16.7708333,34.7083333 16.3541667,35.1041667 L13.9583333,37.5 L12.5,36.0416667 L14.8958333,33.6458333 Z" id="Path"></path>
                    <polygon id="Path" transform="translate(12.493750, 37.497917) rotate(-45.000000) translate(-12.493750, -37.497917) " points="11.4626557 36.4668224 13.5248443 36.4668224 13.5248443 38.5290109 11.4626557 38.5290109"></polygon>
                    <path d="M13.5416667,14.5833333 L13.5416667,17.7083333 C13.5416667,18.2916667 13.0833333,18.75 12.5,18.75 C11.9166667,18.75 11.4583333,18.2916667 11.4583333,17.7083333 L11.4583333,14.5833333 L13.5416667,14.5833333 Z" id="Path"></path>
                    <polygon id="Path" points="11.4583333 12.5 13.5416667 12.5 13.5416667 14.5833333 11.4583333 14.5833333"></polygon>
                    <path d="M13.5416667,9.375 L13.5416667,12.5 L11.4583333,12.5 L11.4583333,9.375 C11.4583333,8.79166667 11.9166667,8.33333333 12.5,8.33333333 C13.0833333,8.33333333 13.5416667,8.79166667 13.5416667,9.375 Z" id="Path"></path>
                    <path d="M12.5,36.0416667 L11.0416667,37.5 L8.64583333,35.1041667 C8.22916667,34.7083333 8.22916667,34.0416667 8.64583333,33.6458333 C9.04166667,33.2291667 9.70833333,33.2291667 10.1041667,33.6458333 L12.5,36.0416667 Z" id="Path"></path>
                    <path d="M11.4583333,12.5 L11.4583333,14.5833333 L8.33333333,14.5833333 C7.75,14.5833333 7.29166667,14.125 7.29166667,13.5416667 C7.29166667,12.9583333 7.75,12.5 8.33333333,12.5 L11.4583333,12.5 Z" id="Path"></path>
                    <path d="M10.1041667,41.3541667 C9.91666667,41.5625 9.64583333,41.6666667 9.375,41.6666667 C9.10416667,41.6666667 8.83333333,41.5625 8.64583333,41.3541667 C8.22916667,40.9583333 8.22916667,40.2916667 8.64583333,39.8958333 L11.0416667,37.5 L12.5,38.9583333 L10.1041667,41.3541667 Z" id="Path"></path>
                    <path d="M2.08333333,23.9583333 L2.08333333,26.0416667 L1.04166667,26.0416667 C0.458333333,26.0416667 0,25.5833333 0,25 C0,24.4166667 0.458333333,23.9583333 1.04166667,23.9583333 L2.08333333,23.9583333 Z" id="Path"></path>
                    <path d="M0,5.20833333 C0,2.33333333 2.33333333,0 5.20833333,0 L25,0 C24.4166667,0 23.9583333,0.458333333 23.9583333,1.04166667 L23.9583333,2.08333333 L5.20833333,2.08333333 C3.47916667,2.08333333 2.08333333,3.47916667 2.08333333,5.20833333 L2.08333333,23.9583333 L1.04166667,23.9583333 C0.458333333,23.9583333 0,24.4166667 0,25 L0,5.20833333 Z" id="Path"></path>
                    <path d="M2.08333333,44.7916667 C2.08333333,46.5208333 3.47916667,47.9166667 5.20833333,47.9166667 L23.9583333,47.9166667 L23.9583333,48.9583333 C23.9583333,49.5416667 24.4166667,50 25,50 L5.20833333,50 C2.33333333,50 0,47.6666667 0,44.7916667 L0,25 C0,25.5833333 0.458333333,26.0416667 1.04166667,26.0416667 L2.08333333,26.0416667 L2.08333333,44.7916667 Z" id="Path"></path>
                </g>
            </g>
        </g>
    </g>
</svg>

<svg width="50" height="50" xmlns="http://www.w3.org/2000/svg"><g fill="#202330"><path d="M48.958 23.958c.584 0 1.042.459 1.042 1.042s-.458 1.042-1.042 1.042h-1.041v-2.084h1.041zm-22.916 0h21.875v2.084H26.042z"/><path d="M44.792 50H25c.583 0 1.042-.458 1.042-1.042v-1.041h18.75a3.12 3.12 0 003.125-3.125v-18.75h1.041c.584 0 1.042-.459 1.042-1.042v19.792A5.21 5.21 0 0144.792 50zM50 5.208V25c0-.583-.458-1.042-1.042-1.042h-1.041V5.208a3.12 3.12 0 00-3.125-3.125h-18.75V1.042C26.042.458 25.583 0 25 0h19.792A5.21 5.21 0 0150 5.208z"/><path d="M41.667 12.5c.583 0 1.041.458 1.041 1.042a1.03 1.03 0 01-1.041 1.041h-8.334a1.032 1.032 0 01-1.041-1.041c0-.584.458-1.042 1.041-1.042h8.334zm0 20.833c.583 0 1.041.459 1.041 1.042s-.458 1.042-1.041 1.042h-8.334a1.032 1.032 0 01-1.041-1.042c0-.583.458-1.042 1.041-1.042h8.334zm0 6.25c.583 0 1.041.459 1.041 1.042s-.458 1.042-1.041 1.042h-8.334a1.032 1.032 0 01-1.041-1.042c0-.583.458-1.042 1.041-1.042h8.334zm-15.625 8.334v1.041c0 .584-.459 1.042-1.042 1.042a1.032 1.032 0 01-1.042-1.042v-1.041h2.084zm-2.084-21.875h2.084v21.875h-2.084zm0-2.084h2.084v2.084h-2.084zm0-21.875h2.084v21.875h-2.084zm2.084-1.041v1.041h-2.084V1.042C23.958.458 24.417 0 25 0s1.042.458 1.042 1.042zM2.083 23.958h21.875v2.084H2.083zM16.667 12.5c.583 0 1.041.458 1.041 1.042a1.03 1.03 0 01-1.041 1.041h-3.125V12.5h3.125zm-.313 27.396a1.007 1.007 0 010 1.458.977.977 0 01-.729.313.977.977 0 01-.73-.313L12.5 38.958l1.458-1.458 2.396 2.396zm-1.458-6.25a1.007 1.007 0 011.458 0 1.007 1.007 0 010 1.458L13.958 37.5 12.5 36.042l2.396-2.396zm-3.86 3.852l1.458-1.458 1.458 1.458-1.458 1.458zm2.506-22.915v3.125c0 .584-.459 1.042-1.042 1.042a1.032 1.032 0 01-1.042-1.042v-3.125h2.084z"/><path d="M11.458 12.5h2.084v2.083h-2.084zm2.084-3.125V12.5h-2.084V9.375c0-.583.459-1.042 1.042-1.042s1.042.459 1.042 1.042zM12.5 36.042L11.042 37.5l-2.396-2.396a1.007 1.007 0 010-1.458 1.007 1.007 0 011.458 0l2.396 2.396zM11.458 12.5v2.083H8.333a1.032 1.032 0 01-1.041-1.041c0-.584.458-1.042 1.041-1.042h3.125zm-1.354 28.854a.977.977 0 01-.729.313.977.977 0 01-.73-.313 1.007 1.007 0 010-1.458l2.397-2.396 1.458 1.458-2.396 2.396zM2.083 23.958v2.084H1.042A1.032 1.032 0 010 25c0-.583.458-1.042 1.042-1.042h1.041z"/><path d="M0 5.208A5.21 5.21 0 015.208 0H25c-.583 0-1.042.458-1.042 1.042v1.041H5.208a3.12 3.12 0 00-3.125 3.125v18.75H1.042C.458 23.958 0 24.417 0 25V5.208zm2.083 39.584a3.12 3.12 0 003.125 3.125h18.75v1.041c0 .584.459 1.042 1.042 1.042H5.208A5.21 5.21 0 010 44.792V25c0 .583.458 1.042 1.042 1.042h1.041v18.75z"/></g></svg>
